azure-patterns/svg-sql-data-warehouse.svg

<svg xmlns="http://www.w3.org/2000/svg" viewBox="0 0 49 47">
                                
                            
    <path fill-rule="evenodd" clip-rule="evenodd" d="M18.8244 0.0390625L0.67627 9.68086V12.4946H4.38141V31.9725H7.4787V12.4946H30.041V30.7328H33.4487V12.4946H36.8444V9.68086L18.8244 0.0390625Z" fill="#3999C6"></path>
    <path fill-rule="evenodd" clip-rule="evenodd" d="M27.9766 23.002V43.0596C27.9766 45.1243 32.649 46.8286 38.393 46.8286V23.002H27.9766Z" fill="#3999C6"></path>
    <path fill-rule="evenodd" clip-rule="evenodd" d="M38.2383 46.8416H38.3935C44.1505 46.8416 48.8099 45.1383 48.8099 43.0726V23.002H38.2383V46.8416Z" fill="#5AB4D9"></path>
    <path fill-rule="evenodd" clip-rule="evenodd" d="M48.8095 23.0034C48.8095 25.0691 44.136 26.7724 38.393 26.7724C32.6481 26.7724 27.9756 25.0811 27.9756 23.0034C27.9756 20.9256 32.6481 19.2344 38.393 19.2344C44.136 19.2344 48.8095 20.8996 48.8095 23.0034Z" fill="white"></path>
    <path fill-rule="evenodd" clip-rule="evenodd" d="M46.6799 22.7826C46.6799 24.1384 42.9748 25.2859 38.3934 25.2859C33.8101 25.2859 30.106 24.1765 30.106 22.7826C30.106 21.4268 33.8101 20.2793 38.3934 20.2793C42.9748 20.2793 46.6799 21.4018 46.6799 22.7826Z" fill="#7FBB42"></path>
    <path fill-rule="evenodd" clip-rule="evenodd" d="M44.95 24.3053C46.0345 23.8668 46.6804 23.3501 46.6804 22.7953C46.6804 21.4405 42.9753 20.291 38.3929 20.291C33.8106 20.291 30.1064 21.4015 30.1064 22.7953C30.1064 23.3891 30.7513 23.9058 31.8358 24.3053C33.3459 23.7116 35.7342 23.3501 38.3929 23.3501C41.0516 23.311 43.4269 23.7116 44.95 24.3053Z" fill="#B8D433"></path>
    <path fill-rule="evenodd" clip-rule="evenodd" d="M30.5708 37.3814V35.9615C30.8161 36.1808 31.0995 36.336 31.4099 36.4522C31.7194 36.5423 32.0298 36.6074 32.3012 36.6074C32.4814 36.6074 32.6366 36.5814 32.7648 36.5423C32.894 36.5163 33.0111 36.4782 33.1003 36.4131C33.1914 36.349 33.2555 36.284 33.2815 36.1938C33.3076 36.1037 33.3456 36.0396 33.3456 35.9485C33.3456 35.8193 33.3206 35.7032 33.2555 35.6131C33.1914 35.5229 33.1003 35.4328 32.9711 35.3297C32.8429 35.2386 32.6877 35.1745 32.5325 35.0844C32.3783 35.0193 32.197 34.9292 31.9777 34.839C31.487 34.6197 31.1135 34.3744 30.8672 34.1031C30.6228 33.7937 30.4937 33.4582 30.4937 33.0186C30.4937 32.6832 30.5577 32.3988 30.6739 32.1795C30.8031 31.9352 30.9843 31.7409 31.2036 31.5857C31.4229 31.4315 31.6943 31.3023 32.0037 31.2503C32.3132 31.1862 32.6236 31.1602 32.9591 31.1602C33.2945 31.1602 33.5779 31.1862 33.8243 31.2252C34.0686 31.2503 34.3139 31.3154 34.5343 31.4055V32.7352C34.4431 32.6702 34.3139 32.6061 34.1978 32.554C34.0816 32.5019 33.9524 32.4639 33.8243 32.4248C33.6951 32.3988 33.5399 32.3608 33.4237 32.3347C33.2945 32.3087 33.1784 32.3087 33.0492 32.3087C32.894 32.3087 32.7398 32.3087 32.6106 32.3347C32.4814 32.3608 32.3652 32.3988 32.2751 32.4639C32.184 32.528 32.1199 32.5931 32.0548 32.6451C31.9907 32.7352 31.9907 32.7993 31.9907 32.8894C31.9907 32.9796 32.0168 33.0707 32.0809 33.1738C32.1459 33.2639 32.21 33.329 32.3262 33.4192C32.4163 33.4832 32.5455 33.5734 32.7007 33.6384C32.8559 33.7025 33.0111 33.7937 33.1914 33.8577C33.4367 33.9479 33.6811 34.077 33.8753 34.1932C34.0946 34.3224 34.2499 34.4385 34.4051 34.5937C34.5593 34.7489 34.6494 34.9031 34.7405 35.1224C34.8046 35.3037 34.8687 35.5229 34.8687 35.8063C34.8687 36.1428 34.8046 36.4522 34.6885 36.6975C34.5593 36.9428 34.379 37.1361 34.1337 37.2913C33.9134 37.4455 33.643 37.5366 33.3326 37.6007C33.0232 37.6658 32.7137 37.6918 32.3783 37.6918C32.0428 37.6918 31.6943 37.6658 31.3839 37.6007C31.0614 37.6007 30.7901 37.4976 30.5708 37.3814Z" fill="white"></path>
    <path fill-rule="evenodd" clip-rule="evenodd" d="M38.6376 32.4379C38.147 32.4379 37.7474 32.6191 37.437 32.9936C37.1276 33.3671 36.9984 33.8577 36.9984 34.4776C36.9984 35.0974 37.1536 35.588 37.437 35.9615C37.7474 36.336 38.1209 36.5163 38.5866 36.5163C39.0763 36.5163 39.4508 36.336 39.7612 35.9876C40.0446 35.6131 40.1998 35.1224 40.1998 34.5036C40.1998 33.8577 40.0446 33.329 39.7612 32.9545C39.5028 32.6191 39.1283 32.4379 38.6376 32.4379ZM38.5736 37.7559C37.6823 37.7559 36.9343 37.4455 36.3535 36.8647C35.7987 36.272 35.4883 35.5099 35.4883 34.5417C35.4883 33.5483 35.7727 32.7483 36.3535 32.1285C36.9473 31.5086 37.6823 31.1992 38.6376 31.1992C39.5289 31.1992 40.2769 31.5086 40.8317 32.0894C41.3875 32.6702 41.6709 33.4442 41.6709 34.4385C41.6709 35.4328 41.3875 36.2329 40.8067 36.8527C40.7806 36.8788 40.7806 36.8788 40.7416 36.9168C40.7165 36.9428 40.7165 36.9428 40.6775 36.9819L42.2907 38.53H40.2769L39.4378 37.6658C39.2315 37.7169 38.922 37.7559 38.5736 37.7559Z" fill="white"></path>
    <path fill-rule="evenodd" clip-rule="evenodd" d="M46.5251 37.6265H42.7559V31.2891H44.1758V36.4519H46.5251V37.6265Z" fill="white"></path>
    <path fill-rule="evenodd" clip-rule="evenodd" d="M12.5762 19.0034H16.5056V15.0742H12.5762V19.0034Z" fill="#7FBB42"></path>
    <path fill-rule="evenodd" clip-rule="evenodd" d="M13.4243 18.751L16.3203 15.8552V18.751H13.4243ZM15.6364 15.3154L12.7764 18.1762V15.3154H15.6364ZM12.2236 19.3568H16.8581V14.7227H12.2236V19.3568Z" fill="#B8D433"></path>
    <path fill-rule="evenodd" clip-rule="evenodd" d="M15.5005 25.2417H19.4299V21.3125H15.5005V25.2417Z" fill="#7FBB42"></path>
    <path fill-rule="evenodd" clip-rule="evenodd" d="M16.3481 24.9893L19.2441 22.0934V24.9893H16.3481ZM18.5612 21.5537L15.7002 24.4145V21.5537H18.5612ZM15.1484 25.5951H19.7829V20.9609H15.1484V25.5951Z" fill="#B8D433"></path>
    <path fill-rule="evenodd" clip-rule="evenodd" d="M8.91113 25.2417H12.8406V21.3125H8.91113V25.2417Z" fill="#7FBB42"></path>
    <path fill-rule="evenodd" clip-rule="evenodd" d="M9.75923 24.9893L12.6552 22.0934V24.9893H9.75923ZM11.9723 21.5537L9.11134 24.4145V21.5537H11.9723ZM8.55957 25.5951H13.194V20.9609H8.55957V25.5951Z" fill="#B8D433"></path>
    <path fill-rule="evenodd" clip-rule="evenodd" d="M15.5005 31.52H19.4299V27.5918H15.5005V31.52Z" fill="#7FBB42"></path>
    <path fill-rule="evenodd" clip-rule="evenodd" d="M16.3481 31.2666L19.2441 28.3708V31.2666H16.3481ZM18.5612 27.8311L15.7002 30.6919V27.8311H18.5612ZM15.1484 31.8724H19.7829V27.2383H15.1484V31.8724Z" fill="#B8D433"></path>
    <path fill-rule="evenodd" clip-rule="evenodd" d="M8.91113 31.52H12.8406V27.5918H8.91113V31.52Z" fill="#7FBB42"></path>
    <path fill-rule="evenodd" clip-rule="evenodd" d="M9.75923 31.2666L12.6552 28.3708V31.2666H9.75923ZM11.9723 27.8311L9.11134 30.6919V27.8311H11.9723ZM8.55957 31.8724H13.194V27.2383H8.55957V31.8724Z" fill="#B8D433"></path>
    <path fill-rule="evenodd" clip-rule="evenodd" d="M21.9541 31.52H25.8835V27.5918H21.9541V31.52Z" fill="#7FBB42"></path>
    <path fill-rule="evenodd" clip-rule="evenodd" d="M22.8022 31.2666L25.6982 28.3708V31.2666H22.8022ZM25.0143 27.8311L22.1543 30.6919V27.8311H25.0143ZM21.6016 31.8724H26.236V27.2383H21.6016V31.8724Z" fill="#B8D433"></path>
</svg>

<svg xmlns="http://www.w3.org/2000/svg" viewBox="0 0 49 47"><path fill-rule="evenodd" clip-rule="evenodd" d="M18.824.04L.676 9.68v2.815h3.705v19.477H7.48V12.495H30.04v18.238h3.408V12.495h3.395V9.68L18.824.039z" fill="#3999C6"/><path fill-rule="evenodd" clip-rule="evenodd" d="M27.977 23.002V43.06c0 2.064 4.672 3.769 10.416 3.769V23.002H27.977z" fill="#3999C6"/><path fill-rule="evenodd" clip-rule="evenodd" d="M38.238 46.842h.156c5.757 0 10.416-1.704 10.416-3.77v-20.07H38.238v23.84z" fill="#5AB4D9"/><path fill-rule="evenodd" clip-rule="evenodd" d="M48.81 23.003c0 2.066-4.674 3.77-10.417 3.77-5.745 0-10.417-1.692-10.417-3.77 0-2.077 4.672-3.769 10.417-3.769 5.743 0 10.416 1.666 10.416 3.77z" fill="#fff"/><path fill-rule="evenodd" clip-rule="evenodd" d="M46.68 22.783c0 1.355-3.705 2.503-8.287 2.503-4.583 0-8.287-1.11-8.287-2.503 0-1.356 3.704-2.504 8.287-2.504 4.582 0 8.287 1.123 8.287 2.504z" fill="#7FBB42"/><path fill-rule="evenodd" clip-rule="evenodd" d="M44.95 24.305c1.084-.438 1.73-.955 1.73-1.51 0-1.355-3.705-2.504-8.287-2.504-4.582 0-8.287 1.11-8.287 2.504 0 .594.645 1.11 1.73 1.51 1.51-.593 3.898-.955 6.557-.955 2.659-.039 5.034.362 6.557.955z" fill="#B8D433"/><path fill-rule="evenodd" clip-rule="evenodd" d="M30.57 37.381v-1.42c.246.22.53.375.84.491.31.09.62.155.891.155.18 0 .336-.026.464-.065a.855.855 0 0 0 .335-.129c.091-.064.155-.129.181-.22.027-.09.065-.153.065-.244a.563.563 0 0 0-.09-.336 1.451 1.451 0 0 0-.285-.283c-.128-.091-.283-.155-.438-.246-.155-.065-.336-.155-.555-.245-.491-.22-.865-.465-1.11-.736a1.654 1.654 0 0 1-.374-1.084c0-.336.064-.62.18-.84.13-.244.31-.438.53-.593.219-.154.49-.284.8-.336.31-.064.62-.09.955-.09.335 0 .619.026.865.065.245.025.49.09.71.18v1.33a2.104 2.104 0 0 0-.336-.181c-.116-.052-.246-.09-.374-.13-.129-.025-.284-.063-.4-.09-.13-.025-.246-.025-.375-.025-.155 0-.31 0-.438.026a.862.862 0 0 0-.336.129c-.091.064-.155.13-.22.181-.064.09-.064.154-.064.244s.026.182.09.285c.065.09.129.155.245.245.09.064.22.154.375.22.155.063.31.155.49.219.246.09.49.219.684.335.22.13.375.245.53.4.154.156.244.31.335.53a2.108 2.108 0 0 1-.052 1.575c-.129.245-.309.438-.554.593-.22.155-.491.246-.801.31-.31.065-.62.09-.955.09-.335 0-.684-.025-.994-.09a1.72 1.72 0 0 1-.813-.22zM38.638 32.438c-.491 0-.89.181-1.201.556-.31.373-.439.864-.439 1.484s.156 1.11.439 1.483c.31.375.684.555 1.15.555.49 0 .864-.18 1.174-.528.284-.375.439-.866.439-1.484 0-.646-.155-1.175-.439-1.55-.258-.335-.633-.516-1.123-.516zm-.064 5.318c-.892 0-1.64-.31-2.22-.891-.555-.593-.866-1.355-.866-2.323 0-.994.285-1.794.865-2.413.594-.62 1.33-.93 2.285-.93.89 0 1.639.31 2.194.89.556.581.839 1.355.839 2.35 0 .994-.283 1.794-.864 2.414l-.065.064-.064.065 1.613 1.548h-2.014l-.84-.864c-.206.05-.515.09-.863.09zM46.525 37.627h-3.77v-6.338h1.42v5.163h2.35v1.175z" fill="#fff"/><path fill-rule="evenodd" clip-rule="evenodd" d="M12.576 19.003h3.93v-3.929h-3.93v3.93z" fill="#7FBB42"/><path fill-rule="evenodd" clip-rule="evenodd" d="M13.424 18.751l2.896-2.896v2.896h-2.896zm2.212-3.436l-2.86 2.861v-2.86h2.86zm-3.412 4.042h4.634v-4.634h-4.634v4.634z" fill="#B8D433"/><path fill-rule="evenodd" clip-rule="evenodd" d="M15.5 25.242h3.93v-3.93H15.5v3.93z" fill="#7FBB42"/><path fill-rule="evenodd" clip-rule="evenodd" d="M16.348 24.99l2.896-2.897v2.896h-2.896zm2.213-3.436l-2.86 2.86v-2.86h2.86zm-3.413 4.041h4.635v-4.634h-4.635v4.634z" fill="#B8D433"/><path fill-rule="evenodd" clip-rule="evenodd" d="M8.911 25.242h3.93v-3.93H8.91v3.93z" fill="#7FBB42"/><path fill-rule="evenodd" clip-rule="evenodd" d="M9.76 24.99l2.895-2.897v2.896H9.76zm2.212-3.436l-2.86 2.86v-2.86h2.86zM8.56 25.595h4.634v-4.634H8.56v4.634z" fill="#B8D433"/><path fill-rule="evenodd" clip-rule="evenodd" d="M15.5 31.52h3.93v-3.928H15.5v3.928z" fill="#7FBB42"/><path fill-rule="evenodd" clip-rule="evenodd" d="M16.348 31.267l2.896-2.896v2.896h-2.896zm2.213-3.436l-2.86 2.86v-2.86h2.86zm-3.413 4.041h4.635v-4.634h-4.635v4.634z" fill="#B8D433"/><path fill-rule="evenodd" clip-rule="evenodd" d="M8.911 31.52h3.93v-3.928H8.91v3.928z" fill="#7FBB42"/><path fill-rule="evenodd" clip-rule="evenodd" d="M9.76 31.267l2.895-2.896v2.896H9.76zm2.212-3.436l-2.86 2.86v-2.86h2.86zM8.56 31.872h4.634v-4.634H8.56v4.634z" fill="#B8D433"/><path fill-rule="evenodd" clip-rule="evenodd" d="M21.954 31.52h3.93v-3.928h-3.93v3.928z" fill="#7FBB42"/><path fill-rule="evenodd" clip-rule="evenodd" d="M22.802 31.267l2.896-2.896v2.896h-2.896zm2.212-3.436l-2.86 2.86v-2.86h2.86zm-3.412 4.041h4.634v-4.634h-4.634v4.634z" fill="#B8D433"/></svg>
